X: 23384
T: Lemonville, The
R: jig
M: 6/8
K: Dmajor
fg|aba afd|fgf fdA|ded dAF|G3- Gef|
gag gec|efe ecA|cBA gfe|f3- ffg|
aba afd|fgf fdA|ded def|B3- Bef|
gag gec|efe ecA|cBA gfe|d3- d||
|:AG|FGA AA/B/c|ded dd/e/f|gag gfe|B3- Bed|
cea aed|cea a2 e|cea gfe|1 fdB A-:|2 d3- d||

